!!!OTL: Yazui nayou jizui jian
!!!ARE: Asia, China,ÿGuangxi Quanzhou
!! II, 490
!!!SCT: C1986
!!!YEM: Copyright 1995, estate of Helmut Schaffrath.
**kern
*ICvox
*Ivox
*M2/4
*k[f#]
*G:
{8.g
8a
8b
8b
=1
8a
16b
16a
4g
=2
8g
8a
8b
8b
=3
2a}
=4
{8.g
16a
8b
8b
=5
8a
16b
16a
4g
=6
8e
8e
8g
16g
16e
=7
2d}
=8
{8.a
16a
8b
8b
=9
8a
16b
16a
4g
=10
8a
8a
8b
16b
16g
=11
2a}
=12
{8.a
16a
8b
16b
16b
=13
8a
16b
16a
4g
=14
8e
8e
8g
16g
16e
=15
2d}
==
!!!AGN: Xiaodiao, Niuniuge
!!!AMT: simple duple
!!!AIN: vox
!!!EED: Helmut Schaffrath
!!!EEV: 1.0
*-
